assets/Hot face/Flat/hot_face_flat.svg

<svg width="32" height="32" viewBox="0 0 32 32" fill="none" xmlns="http://www.w3.org/2000/svg">
<path d="M29.9978 15.9989C29.9978 23.7303 25.3333 29.9978 15.9989 29.9978C6.66443 29.9978 2 23.7303 2 15.9989C2 15.3202 2.03594 14.6529 2.10783 14L15.9989 10.2998L29.8899 14C29.9618 14.6529 29.9978 15.3202 29.9978 15.9989Z" fill="#FFB02E"/>
<path d="M29.89 14C29.143 7.21549 24.514 2 15.999 2C7.48389 2 2.85495 7.21549 2.10791 14H29.89Z" fill="#F8312F"/>
<path d="M27.5 4C26.1193 4 25 5.11929 25 6.5V8.5C25 9.88071 26.1193 11 27.5 11C28.8807 11 30 9.88071 30 8.5V6.5C30 5.11929 28.8807 4 27.5 4Z" fill="#3F5FFF"/>
<path d="M5.5 20C4.11929 20 3 21.1193 3 22.5V24.5C3 25.8807 4.11929 27 5.5 27C6.88071 27 8 25.8807 8 24.5V22.5C8 21.1193 6.88071 20 5.5 20Z" fill="#3F5FFF"/>
<path d="M13.2151 11.9111C12.4044 12.5686 11.0429 13 9.5 13C8.60005 13 7.7618 12.8533 7.05858 12.6005C6.39806 13.3836 6 14.3953 6 15.5C6 17.9853 8.01472 20 10.5 20C12.9853 20 15 17.9853 15 15.5C15 14.0346 14.2995 12.7328 13.2151 11.9111Z" fill="white"/>
<path d="M24.9414 12.6005C24.2382 12.8533 23.3999 13 22.5 13C20.9571 13 19.5956 12.5686 18.7849 11.9111C17.7005 12.7328 17 14.0346 17 15.5C17 17.9853 19.0147 20 21.5 20C23.9853 20 26 17.9853 26 15.5C26 14.3953 25.6019 13.3836 24.9414 12.6005Z" fill="white"/>
<path d="M13 8.5C13 8.22386 12.7761 8 12.5 8C12.2239 8 12 8.22386 12 8.5C12 9.36432 11.6809 9.97582 11.2303 10.3763C10.7706 10.7849 10.1435 11 9.5 11C9.22386 11 9 11.2239 9 11.5C9 11.7761 9.22386 12 9.5 12C10.3565 12 11.2294 11.7151 11.8947 11.1237C12.5691 10.5242 13 9.63568 13 8.5Z" fill="#402A32"/>
<path d="M19 8.5C19 8.22386 19.2239 8 19.5 8C19.7761 8 20 8.22386 20 8.5C20 9.36432 20.3191 9.97582 20.7697 10.3763C21.2294 10.7849 21.8565 11 22.5 11C22.7761 11 23 11.2239 23 11.5C23 11.7761 22.7761 12 22.5 12C21.6435 12 20.7706 11.7151 20.1053 11.1237C19.4309 10.5242 19 9.63568 19 8.5Z" fill="#402A32"/>
<path d="M12 18C13.1046 18 14 17.1046 14 16C14 14.8954 13.1046 14 12 14C10.8954 14 10 14.8954 10 16C10 17.1046 10.8954 18 12 18Z" fill="#402A32"/>
<path d="M20 18C21.1046 18 22 17.1046 22 16C22 14.8954 21.1046 14 20 14C18.8954 14 18 14.8954 18 16C18 17.1046 18.8954 18 20 18Z" fill="#402A32"/>
<path d="M15 21C13.3431 21 12 22.3431 12 24C12 25.6569 13.3431 27 15 27H17C18.6569 27 20 25.6569 20 24C20 22.3431 18.6569 21 17 21H15Z" fill="#402A32"/>
<path d="M12.4785 25.3922C12.231 24.1546 13.1776 23 14.4396 23H17.5604C18.8225 23 19.7691 24.1546 19.5216 25.3922L19.4824 25.5883C19.2019 26.9906 17.9707 28 16.5406 28H15.4594C14.0294 28 12.7982 26.9906 12.5177 25.5883L12.4785 25.3922Z" fill="#F70A8D"/>
</svg>

<svg xmlns="http://www.w3.org/2000/svg" width="32" height="32" fill="none"><path fill="#FFB02E" d="M29.998 15.999c0 7.731-4.665 13.999-14 13.999C6.665 29.998 2 23.73 2 15.998c0-.678.036-1.345.108-1.998l13.89-3.7L29.89 14c.072.653.108 1.32.108 1.999Z"/><path fill="#F8312F" d="M29.89 14c-.747-6.785-5.376-12-13.891-12S2.855 7.215 2.108 14H29.89Z"/><path fill="#3F5FFF" d="M27.5 4A2.5 2.5 0 0 0 25 6.5v2a2.5 2.5 0 0 0 5 0v-2A2.5 2.5 0 0 0 27.5 4ZM5.5 20A2.5 2.5 0 0 0 3 22.5v2a2.5 2.5 0 0 0 5 0v-2A2.5 2.5 0 0 0 5.5 20Z"/><path fill="#fff" d="M13.215 11.911C12.405 12.57 11.043 13 9.5 13a7.29 7.29 0 0 1-2.441-.4 4.5 4.5 0 1 0 6.157-.69ZM24.941 12.6a7.29 7.29 0 0 1-2.441.4c-1.543 0-2.904-.431-3.715-1.089a4.5 4.5 0 1 0 6.157.69Z"/><path fill="#402A32" d="M13 8.5a.5.5 0 0 0-1 0c0 .864-.32 1.476-.77 1.876-.46.409-1.087.624-1.73.624a.5.5 0 0 0 0 1c.857 0 1.73-.285 2.395-.876C12.569 10.524 13 9.636 13 8.5ZM19 8.5a.5.5 0 0 1 1 0c0 .864.32 1.476.77 1.876.46.409 1.087.624 1.73.624a.5.5 0 0 1 0 1c-.857 0-1.73-.285-2.395-.876C19.431 10.524 19 9.636 19 8.5ZM12 18a2 2 0 1 0 0-4 2 2 0 0 0 0 4ZM20 18a2 2 0 1 0 0-4 2 2 0 0 0 0 4ZM15 21a3 3 0 1 0 0 6h2a3 3 0 1 0 0-6h-2Z"/><path fill="#F70A8D" d="M12.479 25.392A2 2 0 0 1 14.439 23h3.121a2 2 0 0 1 1.962 2.392l-.04.196A3 3 0 0 1 16.541 28h-1.082a3 3 0 0 1-2.941-2.412l-.04-.196Z"/></svg>
